Newaita/actions/24/im-user.svg

<?xml version="1.0" encoding="UTF-8"?>
<svg xmlns="http://www.w3.org/2000/svg" xmlns:xlink="http://www.w3.org/1999/xlink" width="24pt" height="24pt" viewBox="0 0 24 24" version="1.1">
<g id="surface1">
<path style=" stroke:none;fill-rule:nonzero;fill:rgb(25.882354%,25.882354%,25.882354%);fill-opacity:1;" d="M 8.390625 11.464844 Z M 8.390625 11.464844 C 6.449219 12.171875 4.621094 13.636719 4.101562 15.714844 C 3.878906 16.703125 4 17.722656 3.96875 18.726562 C 3.980469 19.707031 3.949219 20.691406 3.984375 21.667969 C 4.082031 22.246094 4.703125 22.296875 5.175781 22.261719 L 19.101562 22.261719 C 19.738281 22.277344 19.90625 21.605469 19.84375 21.097656 C 19.835938 19.523438 19.871094 17.949219 19.824219 16.378906 C 19.640625 14.339844 18.074219 12.699219 16.296875 11.839844 C 15.933594 11.730469 15.535156 11.308594 15.175781 11.589844 C 14.570312 11.886719 13.929688 12.097656 13.269531 12.21875 L 13.863281 13.617188 C 14.636719 13.335938 15.082031 13.066406 15.648438 13.164062 C 17.09375 13.847656 18.421875 15.222656 18.355469 16.921875 L 18.355469 20.773438 L 5.457031 20.773438 C 5.464844 19.355469 5.441406 17.933594 5.472656 16.515625 C 5.621094 14.917969 6.933594 13.714844 8.328125 13.085938 C 8.789062 13.226562 9.671875 13.449219 9.921875 13.582031 L 10.542969 12.21875 C 9.792969 12.078125 9.0625 11.824219 8.390625 11.464844 Z M 8.390625 11.464844 "/>
<path style=" stroke:none;fill-rule:nonzero;fill:rgb(25.882354%,25.882354%,25.882354%);fill-opacity:1;" d="M 11.90625 1.128906 C 9.160156 1.128906 6.945312 3.34375 6.945312 6.089844 C 6.945312 8.839844 9.160156 11.050781 11.90625 11.050781 C 14.65625 11.050781 16.867188 8.839844 16.867188 6.089844 C 16.867188 3.34375 14.65625 1.128906 11.90625 1.128906 Z M 11.90625 2.667969 C 13.832031 2.667969 15.378906 4.21875 15.378906 6.140625 C 15.378906 8.066406 13.832031 9.613281 11.90625 9.613281 C 9.984375 9.613281 8.433594 8.066406 8.433594 6.140625 C 8.433594 4.21875 9.984375 2.667969 11.90625 2.667969 Z M 11.90625 2.667969 "/>
<path style=" stroke:none;fill-rule:nonzero;fill:rgb(25.882354%,64.705884%,96.078432%);fill-opacity:1;" d="M 11.90625 12.300781 C 11.597656 12.285156 11.359375 12.503906 11.164062 12.71875 C 10.832031 13.027344 10.871094 13.609375 11.222656 13.890625 C 11.328125 13.996094 11.429688 14.113281 11.570312 14.175781 C 11.269531 14.921875 11.214844 15.738281 11.171875 16.535156 C 11.144531 17.589844 11.179688 18.667969 11.476562 19.6875 C 11.566406 19.910156 11.652344 20.277344 11.945312 20.277344 C 12.210938 20.164062 12.28125 19.839844 12.367188 19.59375 C 12.660156 18.492188 12.683594 17.335938 12.625 16.203125 C 12.570312 15.515625 12.507812 14.816406 12.242188 14.175781 C 12.449219 14.066406 12.605469 13.882812 12.75 13.707031 C 12.984375 13.375 12.890625 12.894531 12.582031 12.648438 C 12.40625 12.453125 12.183594 12.292969 11.90625 12.300781 Z M 11.90625 12.300781 "/>
</g>
</svg>

<svg xmlns="http://www.w3.org/2000/svg" width="32" height="32" viewBox="0 0 24 24"><path d="M8.39 11.465zm0 0c-1.94.707-3.769 2.172-4.288 4.25-.223.988-.102 2.008-.133 3.012.011.98-.02 1.964.015 2.941.098.578.72.629 1.192.594h13.926c.636.015.804-.657.742-1.164-.008-1.575.027-3.149-.02-4.72-.183-2.038-1.75-3.679-3.527-4.538-.363-.11-.762-.531-1.121-.25a7.331 7.331 0 0 1-1.906.629l.593 1.398c.774-.281 1.219-.55 1.785-.453 1.446.684 2.774 2.059 2.707 3.758v3.851H5.457c.008-1.418-.016-2.84.016-4.257.148-1.598 1.46-2.801 2.855-3.43.461.14 1.344.363 1.594.496l.621-1.363a7.507 7.507 0 0 1-2.152-.754zm0 0M11.906 1.129a4.953 4.953 0 0 0-4.96 4.96 4.95 4.95 0 0 0 4.96 4.962c2.75 0 4.961-2.211 4.961-4.961a4.95 4.95 0 0 0-4.96-4.961zm0 1.539a3.465 3.465 0 0 1 3.473 3.473 3.463 3.463 0 0 1-3.473 3.472 3.465 3.465 0 0 1-3.472-3.472 3.468 3.468 0 0 1 3.472-3.473zm0 0" fill="#424242"/><path d="M11.906 12.3c-.308-.015-.547.204-.742.419-.332.308-.293.89.059 1.172.105.105.207.222.347.285-.3.746-.355 1.562-.398 2.36-.027 1.054.008 2.132.305 3.151.09.223.175.59.468.59.266-.113.336-.437.422-.683.293-1.102.317-2.258.258-3.39-.055-.688-.117-1.388-.383-2.028.207-.11.363-.293.508-.469.234-.332.14-.812-.168-1.059-.176-.195-.398-.355-.676-.347zm0 0" fill="#42a5f5"/></svg>
